versioned_docs/version-3.X/reference/data-models/aws/img/aws_iam_user.svg

<svg xmlns="http://www.w3.org/2000/svg" xmlns:xlink="http://www.w3.org/1999/xlink" width="704" height="872" preserveAspectRatio="none" style="width:704px;height:872px;background:#00000000"><a xlink:actuate="onRequest" xlink:href="#a" xlink:show="new" xlink:title="#resource" xlink:type="simple" target="_top"><rect id="a" width="195" height="275.836" x="287.5" y="7" fill="#3D176E" rx="2.5" ry="2.5" style="stroke:#000d19;stroke-width:1.5"/><circle cx="340.25" cy="26.895" r="11" fill="#E98DF7" style="stroke:#000d19;stroke-width:1"/><path d="M343.219 32.535q-.578.297-1.219.438-.64.156-1.344.156-2.5 0-3.828-1.64-1.312-1.657-1.312-4.782t1.312-4.781q1.328-1.656 3.828-1.656.703 0 1.344.156.656.156 1.219.453v2.719q-.625-.578-1.219-.844-.594-.281-1.219-.281-1.344 0-2.031 1.078-.688 1.062-.688 3.156 0 2.094.688 3.172.688 1.062 2.031 1.062.625 0 1.219-.265.594-.281 1.219-.86v2.72Z"/><text x="365.75" y="32.78" fill="#D9B8FF" font-family="Helvetica" font-size="17" textLength="71">resource</text><path d="M288.5 46.789h193" style="stroke:#000d19;stroke-width:1.5"/><text x="298.5" y="65.999" fill="#D9B8FF" font-family="sans-serif" font-size="11" font-weight="bold" textLength="12">id</text><text x="310.5" y="65.999" fill="#D9B8FF" font-family="sans-serif" font-size="11" textLength="41">: string</text><text x="298.5" y="88.804" fill="#D9B8FF" font-family="sans-serif" font-size="11" font-weight="bold" textLength="28">tags</text><text x="326.5" y="88.804" fill="#D9B8FF" font-family="sans-serif" font-size="11" textLength="145">: dictionary[string, string]</text><text x="298.5" y="111.609" fill="#D9B8FF" font-family="sans-serif" font-size="11" font-weight="bold" textLength="35">name</text><text x="333.5" y="111.609" fill="#D9B8FF" font-family="sans-serif" font-size="11" textLength="41">: string</text><text x="298.5" y="134.414" fill="#D9B8FF" font-family="sans-serif" font-size="11" font-weight="bold" textLength="35">ctime</text><text x="333.5" y="134.414" fill="#D9B8FF" font-family="sans-serif" font-size="11" textLength="58">: datetime</text><text x="298.5" y="157.218" fill="#D9B8FF" font-family="sans-serif" font-size="11" font-weight="bold" textLength="24">age</text><text x="322.5" y="157.218" fill="#D9B8FF" font-family="sans-serif" font-size="11" textLength="55">: duration</text><text x="298.5" y="180.023" fill="#D9B8FF" font-family="sans-serif" font-size="11" font-weight="bold" textLength="39">mtime</text><text x="337.5" y="180.023" fill="#D9B8FF" font-family="sans-serif" font-size="11" textLength="58">: datetime</text><text x="298.5" y="202.828" fill="#D9B8FF" font-family="sans-serif" font-size="11" font-weight="bold" textLength="75">last_update</text><text x="373.5" y="202.828" fill="#D9B8FF" font-family="sans-serif" font-size="11" textLength="55">: duration</text><text x="298.5" y="225.632" fill="#D9B8FF" font-family="sans-serif" font-size="11" font-weight="bold" textLength="36">atime</text><text x="334.5" y="225.632" fill="#D9B8FF" font-family="sans-serif" font-size="11" textLength="58">: datetime</text><text x="298.5" y="248.437" fill="#D9B8FF" font-family="sans-serif" font-size="11" font-weight="bold" textLength="74">last_access</text><text x="372.5" y="248.437" fill="#D9B8FF" font-family="sans-serif" font-size="11" textLength="55">: duration</text><text x="298.5" y="271.242" fill="#D9B8FF" font-family="sans-serif" font-size="11" font-weight="bold" textLength="27">kind</text><text x="325.5" y="271.242" fill="#D9B8FF" font-family="sans-serif" font-size="11" textLength="41">: string</text></a><a xlink:actuate="onRequest" xlink:href="#b" xlink:show="new" xlink:title="#aws_resource" xlink:type="simple" target="_top"><rect id="b" width="155" height="70.594" x="232.5" y="404" fill="#3D176E" rx="2.5" ry="2.5" style="stroke:#000d19;stroke-width:1.5"/><circle cx="247.5" cy="423.894" r="11" fill="#E98DF7" style="stroke:#000d19;stroke-width:1"/><path d="M250.469 429.535q-.578.297-1.219.438-.64.156-1.344.156-2.5 0-3.828-1.64-1.312-1.657-1.312-4.782t1.312-4.781q1.328-1.656 3.828-1.656.703 0 1.344.156.656.156 1.219.453v2.719q-.625-.579-1.219-.844-.594-.281-1.219-.281-1.344 0-2.031 1.078-.688 1.062-.688 3.156 0 2.094.688 3.172.688 1.062 2.031 1.062.625 0 1.219-.265.594-.281 1.219-.86v2.72Z"/><text x="266.5" y="429.78" fill="#D9B8FF" font-family="Helvetica" font-size="17" textLength="113">aws_resource</text><path d="M233.5 443.789h153" style="stroke:#000d19;stroke-width:1.5"/><text x="243.5" y="463" fill="#D9B8FF" font-family="sans-serif" font-size="11" font-weight="bold" textLength="21">arn</text><text x="264.5" y="463" fill="#D9B8FF" font-family="sans-serif" font-size="11" textLength="41">: string</text></a><a xlink:actuate="onRequest" xlink:href="#c" xlink:show="new" xlink:title="#user" xlink:type="simple" target="_top"><rect id="c" width="78" height="39.789" x="423" y="419.5" fill="#3D176E" rx="2.5" ry="2.5" style="stroke:#000d19;stroke-width:1.5"/><circle cx="438" cy="439.394" r="11" fill="#E98DF7" style="stroke:#000d19;stroke-width:1"/><path d="M440.969 445.035q-.578.297-1.219.438-.64.156-1.344.156-2.5 0-3.828-1.64-1.312-1.657-1.312-4.782t1.312-4.781q1.328-1.656 3.828-1.656.703 0 1.344.156.656.156 1.219.453v2.719q-.625-.579-1.219-.844-.594-.281-1.219-.281-1.344 0-2.031 1.078-.688 1.062-.688 3.156 0 2.094.688 3.172.688 1.062 2.031 1.062.625 0 1.219-.265.594-.281 1.219-.86v2.72Z"/><text x="457" y="445.28" fill="#D9B8FF" font-family="Helvetica" font-size="17" textLength="36">user</text></a><a xlink:actuate="onRequest" xlink:href="#d" xlink:show="new" xlink:title="#aws_iam_attached_permissions_boundary" xlink:type="simple" target="_top"><rect id="d" width="394" height="93.398" x="7" y="772" fill="#3D176E" rx="2.5" ry="2.5" style="stroke:#000d19;stroke-width:1.5"/><circle cx="22" cy="791.894" r="11" fill="#E98DF7" style="stroke:#000d19;stroke-width:1"/><path d="M24.969 797.535q-.578.297-1.219.438-.64.156-1.344.156-2.5 0-3.828-1.64-1.312-1.657-1.312-4.782t1.312-4.781q1.328-1.657 3.828-1.657.703 0 1.344.157.656.156 1.219.453v2.719q-.625-.578-1.219-.844-.594-.281-1.219-.281-1.343 0-2.031 1.078-.688 1.062-.688 3.156 0 2.094.688 3.172.688 1.062 2.031 1.062.625 0 1.219-.265.594-.282 1.219-.86v2.72Z"/><text x="41" y="797.78" fill="#D9B8FF" font-family="Helvetica" font-size="17" textLength="352">aws_iam_attached_permissions_boundary</text><path d="M8 811.789h392" style="stroke:#000d19;stroke-width:1.5"/><text x="18" y="831" fill="#D9B8FF" font-family="sans-serif" font-size="11" font-weight="bold" textLength="177">permissions_boundary_type</text><text x="195" y="831" fill="#D9B8FF" font-family="sans-serif" font-size="11" textLength="41">: string</text><text x="18" y="853.804" fill="#D9B8FF" font-family="sans-serif" font-size="11" font-weight="bold" textLength="170">permissions_boundary_arn</text><text x="188" y="853.804" fill="#D9B8FF" font-family="sans-serif" font-size="11" textLength="41">: string</text></a><a xlink:actuate="onRequest" xlink:href="#e" xlink:show="new" xlink:title="#aws_iam_policy_detail" xlink:type="simple" target="_top"><rect id="e" width="261" height="93.398" x="436.5" y="772" fill="#3D176E" rx="2.5" ry="2.5" style="stroke:#000d19;stroke-width:1.5"/><circle cx="465.9" cy="791.894" r="11" fill="#E98DF7" style="stroke:#000d19;stroke-width:1"/><path d="M468.869 797.535q-.578.297-1.219.438-.64.156-1.344.156-2.5 0-3.828-1.64-1.312-1.657-1.312-4.782t1.312-4.781q1.328-1.657 3.828-1.657.703 0 1.344.157.656.156 1.219.453v2.719q-.625-.578-1.219-.844-.594-.281-1.219-.281-1.344 0-2.031 1.078-.688 1.062-.688 3.156 0 2.094.688 3.172.688 1.062 2.031 1.062.625 0 1.219-.265.594-.282 1.219-.86v2.72Z"/><text x="488.1" y="797.78" fill="#D9B8FF" font-family="Helvetica" font-size="17" textLength="187">aws_iam_policy_detail</text><path d="M437.5 811.789h259" style="stroke:#000d19;stroke-width:1.5"/><text x="447.5" y="831" fill="#D9B8FF" font-family="sans-serif" font-size="11" font-weight="bold" textLength="79">policy_name</text><text x="526.5" y="831" fill="#D9B8FF" font-family="sans-serif" font-size="11" textLength="41">: string</text><text x="447.5" y="853.804" fill="#D9B8FF" font-family="sans-serif" font-size="11" font-weight="bold" textLength="107">policy_document</text><text x="554.5" y="853.804" fill="#D9B8FF" font-family="sans-serif" font-size="11" textLength="132">: dictionary[string, any]</text></a><a xlink:actuate="onRequest" xlink:href="#f" xlink:show="new" xlink:title="#aws_iam_user" xlink:type="simple" target="_top"><rect id="f" width="448" height="116.203" x="161" y="596" fill="#3D176E" rx="2.5" ry="2.5" style="stroke:#000d19;stroke-width:1.5"/><circle cx="316.25" cy="615.894" r="11" fill="#E98DF7" style="stroke:#000d19;stroke-width:1"/><path d="M319.219 621.535q-.578.297-1.219.438-.64.156-1.344.156-2.5 0-3.828-1.64-1.312-1.657-1.312-4.782t1.312-4.781q1.328-1.657 3.828-1.657.703 0 1.344.157.656.156 1.219.453v2.719q-.625-.578-1.219-.844-.594-.281-1.219-.281-1.344 0-2.031 1.078-.688 1.062-.688 3.156 0 2.094.688 3.172.688 1.062 2.031 1.062.625 0 1.219-.265.594-.282 1.219-.86v2.72Z"/><text x="341.75" y="621.78" fill="#D9B8FF" font-family="Helvetica" font-size="17" textLength="119">aws_iam_user</text><path d="M162 635.789h446" style="stroke:#000d19;stroke-width:1.5"/><text x="172" y="655" fill="#D9B8FF" font-family="sans-serif" font-size="11" font-weight="bold" textLength="29">path</text><text x="201" y="655" fill="#D9B8FF" font-family="sans-serif" font-size="11" textLength="41">: string</text><text x="172" y="677.804" fill="#D9B8FF" font-family="sans-serif" font-size="11" font-weight="bold" textLength="84">user_policies</text><text x="256" y="677.804" fill="#D9B8FF" font-family="sans-serif" font-size="11" textLength="141">: aws_iam_policy_detail[]</text><text x="172" y="700.609" fill="#D9B8FF" font-family="sans-serif" font-size="11" font-weight="bold" textLength="177">user_permissions_boundary</text><text x="349" y="700.609" fill="#D9B8FF" font-family="sans-serif" font-size="11" textLength="249">: aws_iam_attached_permissions_boundary</text></a><path fill="none" d="M344.83 302.65c-9.79 38.2-19.34 75.44-25.96 101.25m19.19-103.01 11.75-17.63 1.81 21.11-13.56-3.48zm88.24 2c12.26 46.57 24.14 91.69 30.63 116.35m-37.48-114.86 1.68-21.12 11.86 17.56-13.54 3.56zm-90.49 189.84c10.97 31.07 24.76 70.15 35.92 101.76m-42.61-99.68-.05-21.19 13.25 16.53-13.2 4.66zm125.86-17.51c-11.83 32.63-28.99 79.99-42.44 117.1m35.95-119.74 13.39-16.42-.23 21.19-13.16-4.77zm7.27 235.91c20.55 18.35 43.13 38.51 62.99 56.24" style="stroke:#ffaf37;stroke-width:2"/><path fill="#FFAF37" d="m515.83 771.81-4.05-8.978.32 5.648-5.648.32 9.378 3.01z" style="stroke:#ffaf37;stroke-width:2"/><path fill="none" d="M321.44 712.06c-20.44 18.35-42.89 38.51-62.64 56.24" style="stroke:#ffaf37;stroke-width:2"/><path fill="#FFAF37" d="m254.89 771.81 9.371-3.03-5.648-.308.308-5.648-4.031 8.986z" style="stroke:#ffaf37;stroke-width:2"/></svg>

<svg xmlns="http://www.w3.org/2000/svg" xmlns:xlink="http://www.w3.org/1999/xlink" width="704" height="872" preserveAspectRatio="none" style="width:704px;height:872px;background:#00000000"><a xlink:actuate="onRequest" xlink:href="#a" xlink:show="new" xlink:title="#resource" xlink:type="simple" target="_top"><rect id="a" width="195" height="275.836" x="287.5" y="7" fill="#3D176E" rx="2.5" ry="2.5" style="stroke:#000d19;stroke-width:1.5"/><circle cx="340.25" cy="26.895" r="11" fill="#E98DF7" style="stroke:#000d19;stroke-width:1"/><path d="M343.219 32.535q-.578.297-1.219.438-.64.156-1.344.156-2.5 0-3.828-1.64-1.312-1.657-1.312-4.782t1.312-4.781q1.328-1.656 3.828-1.656.703 0 1.344.156.656.156 1.219.453v2.719q-.625-.578-1.219-.844-.594-.281-1.219-.281-1.344 0-2.031 1.078-.688 1.062-.688 3.156 0 2.094.688 3.172.688 1.062 2.031 1.062.625 0 1.219-.265.594-.281 1.219-.86v2.72Z"/><text x="365.75" y="32.78" fill="#D9B8FF" font-family="Helvetica" font-size="17" textLength="71">resource</text><path d="M288.5 46.789h193" style="stroke:#000d19;stroke-width:1.5"/><text x="298.5" y="65.999" fill="#D9B8FF" font-family="sans-serif" font-size="11" font-weight="bold" textLength="12">id</text><text x="310.5" y="65.999" fill="#D9B8FF" font-family="sans-serif" font-size="11" textLength="41">: string</text><text x="298.5" y="88.804" fill="#D9B8FF" font-family="sans-serif" font-size="11" font-weight="bold" textLength="28">tags</text><text x="326.5" y="88.804" fill="#D9B8FF" font-family="sans-serif" font-size="11" textLength="145">: dictionary[string, string]</text><text x="298.5" y="111.609" fill="#D9B8FF" font-family="sans-serif" font-size="11" font-weight="bold" textLength="35">name</text><text x="333.5" y="111.609" fill="#D9B8FF" font-family="sans-serif" font-size="11" textLength="41">: string</text><text x="298.5" y="134.414" fill="#D9B8FF" font-family="sans-serif" font-size="11" font-weight="bold" textLength="35">ctime</text><text x="333.5" y="134.414" fill="#D9B8FF" font-family="sans-serif" font-size="11" textLength="58">: datetime</text><text x="298.5" y="157.218" fill="#D9B8FF" font-family="sans-serif" font-size="11" font-weight="bold" textLength="24">age</text><text x="322.5" y="157.218" fill="#D9B8FF" font-family="sans-serif" font-size="11" textLength="55">: duration</text><text x="298.5" y="180.023" fill="#D9B8FF" font-family="sans-serif" font-size="11" font-weight="bold" textLength="39">mtime</text><text x="337.5" y="180.023" fill="#D9B8FF" font-family="sans-serif" font-size="11" textLength="58">: datetime</text><text x="298.5" y="202.828" fill="#D9B8FF" font-family="sans-serif" font-size="11" font-weight="bold" textLength="75">last_update</text><text x="373.5" y="202.828" fill="#D9B8FF" font-family="sans-serif" font-size="11" textLength="55">: duration</text><text x="298.5" y="225.632" fill="#D9B8FF" font-family="sans-serif" font-size="11" font-weight="bold" textLength="36">atime</text><text x="334.5" y="225.632" fill="#D9B8FF" font-family="sans-serif" font-size="11" textLength="58">: datetime</text><text x="298.5" y="248.437" fill="#D9B8FF" font-family="sans-serif" font-size="11" font-weight="bold" textLength="74">last_access</text><text x="372.5" y="248.437" fill="#D9B8FF" font-family="sans-serif" font-size="11" textLength="55">: duration</text><text x="298.5" y="271.242" fill="#D9B8FF" font-family="sans-serif" font-size="11" font-weight="bold" textLength="27">kind</text><text x="325.5" y="271.242" fill="#D9B8FF" font-family="sans-serif" font-size="11" textLength="41">: string</text></a><a xlink:actuate="onRequest" xlink:href="#b" xlink:show="new" xlink:title="#aws_resource" xlink:type="simple" target="_top"><rect id="b" width="155" height="70.594" x="232.5" y="404" fill="#3D176E" rx="2.5" ry="2.5" style="stroke:#000d19;stroke-width:1.5"/><circle cx="247.5" cy="423.894" r="11" fill="#E98DF7" style="stroke:#000d19;stroke-width:1"/><path d="M250.469 429.535q-.578.297-1.219.438-.64.156-1.344.156-2.5 0-3.828-1.64-1.312-1.657-1.312-4.782t1.312-4.781q1.328-1.656 3.828-1.656.703 0 1.344.156.656.156 1.219.453v2.719q-.625-.579-1.219-.844-.594-.281-1.219-.281-1.344 0-2.031 1.078-.688 1.062-.688 3.156 0 2.094.688 3.172.688 1.062 2.031 1.062.625 0 1.219-.265.594-.281 1.219-.86v2.72Z"/><text x="266.5" y="429.78" fill="#D9B8FF" font-family="Helvetica" font-size="17" textLength="113">aws_resource</text><path d="M233.5 443.789h153" style="stroke:#000d19;stroke-width:1.5"/><text x="243.5" y="463" fill="#D9B8FF" font-family="sans-serif" font-size="11" font-weight="bold" textLength="21">arn</text><text x="264.5" y="463" fill="#D9B8FF" font-family="sans-serif" font-size="11" textLength="41">: string</text></a><a xlink:actuate="onRequest" xlink:href="#c" xlink:show="new" xlink:title="#user" xlink:type="simple" target="_top"><rect id="c" width="78" height="39.789" x="423" y="419.5" fill="#3D176E" rx="2.5" ry="2.5" style="stroke:#000d19;stroke-width:1.5"/><circle cx="438" cy="439.394" r="11" fill="#E98DF7" style="stroke:#000d19;stroke-width:1"/><path d="M440.969 445.035q-.578.297-1.219.438-.64.156-1.344.156-2.5 0-3.828-1.64-1.312-1.657-1.312-4.782t1.312-4.781q1.328-1.656 3.828-1.656.703 0 1.344.156.656.156 1.219.453v2.719q-.625-.579-1.219-.844-.594-.281-1.219-.281-1.344 0-2.031 1.078-.688 1.062-.688 3.156 0 2.094.688 3.172.688 1.062 2.031 1.062.625 0 1.219-.265.594-.281 1.219-.86v2.72Z"/><text x="457" y="445.28" fill="#D9B8FF" font-family="Helvetica" font-size="17" textLength="36">user</text></a><a xlink:actuate="onRequest" xlink:href="#d" xlink:show="new" xlink:title="#aws_iam_attached_permissions_boundary" xlink:type="simple" target="_top"><rect id="d" width="394" height="93.398" x="7" y="772" fill="#3D176E" rx="2.5" ry="2.5" style="stroke:#000d19;stroke-width:1.5"/><circle cx="22" cy="791.894" r="11" fill="#E98DF7" style="stroke:#000d19;stroke-width:1"/><path d="M24.969 797.535q-.578.297-1.219.438-.64.156-1.344.156-2.5 0-3.828-1.64-1.312-1.657-1.312-4.782t1.312-4.781q1.328-1.657 3.828-1.657.703 0 1.344.157.656.156 1.219.453v2.719q-.625-.578-1.219-.844-.594-.281-1.219-.281-1.343 0-2.031 1.078-.688 1.062-.688 3.156 0 2.094.688 3.172.688 1.062 2.031 1.062.625 0 1.219-.265.594-.282 1.219-.86v2.72Z"/><text x="41" y="797.78" fill="#D9B8FF" font-family="Helvetica" font-size="17" textLength="352">aws_iam_attached_permissions_boundary</text><path d="M8 811.789h392" style="stroke:#000d19;stroke-width:1.5"/><text x="18" y="831" fill="#D9B8FF" font-family="sans-serif" font-size="11" font-weight="bold" textLength="177">permissions_boundary_type</text><text x="195" y="831" fill="#D9B8FF" font-family="sans-serif" font-size="11" textLength="41">: string</text><text x="18" y="853.804" fill="#D9B8FF" font-family="sans-serif" font-size="11" font-weight="bold" textLength="170">permissions_boundary_arn</text><text x="188" y="853.804" fill="#D9B8FF" font-family="sans-serif" font-size="11" textLength="41">: string</text></a><a xlink:actuate="onRequest" xlink:href="#e" xlink:show="new" xlink:title="#aws_iam_policy_detail" xlink:type="simple" target="_top"><rect id="e" width="261" height="93.398" x="436.5" y="772" fill="#3D176E" rx="2.5" ry="2.5" style="stroke:#000d19;stroke-width:1.5"/><circle cx="465.9" cy="791.894" r="11" fill="#E98DF7" style="stroke:#000d19;stroke-width:1"/><path d="M468.869 797.535q-.578.297-1.219.438-.64.156-1.344.156-2.5 0-3.828-1.64-1.312-1.657-1.312-4.782t1.312-4.781q1.328-1.657 3.828-1.657.703 0 1.344.157.656.156 1.219.453v2.719q-.625-.578-1.219-.844-.594-.281-1.219-.281-1.344 0-2.031 1.078-.688 1.062-.688 3.156 0 2.094.688 3.172.688 1.062 2.031 1.062.625 0 1.219-.265.594-.282 1.219-.86v2.72Z"/><text x="488.1" y="797.78" fill="#D9B8FF" font-family="Helvetica" font-size="17" textLength="187">aws_iam_policy_detail</text><path d="M437.5 811.789h259" style="stroke:#000d19;stroke-width:1.5"/><text x="447.5" y="831" fill="#D9B8FF" font-family="sans-serif" font-size="11" font-weight="bold" textLength="79">policy_name</text><text x="526.5" y="831" fill="#D9B8FF" font-family="sans-serif" font-size="11" textLength="41">: string</text><text x="447.5" y="853.804" fill="#D9B8FF" font-family="sans-serif" font-size="11" font-weight="bold" textLength="107">policy_document</text><text x="554.5" y="853.804" fill="#D9B8FF" font-family="sans-serif" font-size="11" textLength="132">: dictionary[string, any]</text></a><a xlink:actuate="onRequest" xlink:href="#f" xlink:show="new" xlink:title="#aws_iam_user" xlink:type="simple" target="_top"><rect id="f" width="448" height="116.203" x="161" y="596" fill="#3D176E" rx="2.5" ry="2.5" style="stroke:#000d19;stroke-width:1.5"/><circle cx="316.25" cy="615.894" r="11" fill="#E98DF7" style="stroke:#000d19;stroke-width:1"/><path d="M319.219 621.535q-.578.297-1.219.438-.64.156-1.344.156-2.5 0-3.828-1.64-1.312-1.657-1.312-4.782t1.312-4.781q1.328-1.657 3.828-1.657.703 0 1.344.157.656.156 1.219.453v2.719q-.625-.578-1.219-.844-.594-.281-1.219-.281-1.344 0-2.031 1.078-.688 1.062-.688 3.156 0 2.094.688 3.172.688 1.062 2.031 1.062.625 0 1.219-.265.594-.282 1.219-.86v2.72Z"/><text x="341.75" y="621.78" fill="#D9B8FF" font-family="Helvetica" font-size="17" textLength="119">aws_iam_user</text><path d="M162 635.789h446" style="stroke:#000d19;stroke-width:1.5"/><text x="172" y="655" fill="#D9B8FF" font-family="sans-serif" font-size="11" font-weight="bold" textLength="29">path</text><text x="201" y="655" fill="#D9B8FF" font-family="sans-serif" font-size="11" textLength="41">: string</text><text x="172" y="677.804" fill="#D9B8FF" font-family="sans-serif" font-size="11" font-weight="bold" textLength="84">user_policies</text><text x="256" y="677.804" fill="#D9B8FF" font-family="sans-serif" font-size="11" textLength="141">: aws_iam_policy_detail[]</text><text x="172" y="700.609" fill="#D9B8FF" font-family="sans-serif" font-size="11" font-weight="bold" textLength="177">user_permissions_boundary</text><text x="349" y="700.609" fill="#D9B8FF" font-family="sans-serif" font-size="11" textLength="249">: aws_iam_attached_permissions_boundary</text></a><path fill="none" d="M344.83 302.65c-9.79 38.2-19.34 75.44-25.96 101.25M338.06 300.89l11.75-17.63 1.81 21.11-13.56-3.48zM426.3 302.89c12.26 46.57 24.14 91.69 30.63 116.35M419.45 304.38l1.68-21.12 11.86 17.56-13.54 3.56zM328.96 494.22c10.97 31.07 24.76 70.15 35.92 101.76M322.27 496.3l-.05-21.19 13.25 16.53-13.2 4.66zM448.13 478.79c-11.83 32.63-28.99 79.99-42.44 117.1M441.64 476.15l13.39-16.42-.23 21.19-13.16-4.77zM448.91 712.06c20.55 18.35 43.13 38.51 62.99 56.24" style="stroke:#ffaf37;stroke-width:2"/><path fill="#FFAF37" d="m515.83 771.81-4.05-8.978.32 5.648-5.648.32 9.378 3.01z" style="stroke:#ffaf37;stroke-width:2"/><path fill="none" d="M321.44 712.06c-20.44 18.35-42.89 38.51-62.64 56.24" style="stroke:#ffaf37;stroke-width:2"/><path fill="#FFAF37" d="m254.89 771.81 9.371-3.03-5.648-.308.308-5.648-4.031 8.986z" style="stroke:#ffaf37;stroke-width:2"/></svg>
